X:1
T:Title
%%score 1 2
L:1/8
Q:1/4=82
M:2/4
K:G
V:1 treble nm="Grand Piano, Soprano"
V:2 bass nm="Choir Pad, Pontevedra, 11.11.11.11"
V:1
 [B,G][B,F] [CE][CF] | [B,G]2 [B,G]2 | [CA][CF] [B,G][DA] | [DB]4 | [B,G][B,F] [CE][CF] | %5
w: By~James~Henry~Fillmore,~Sr.,~1887 * * *|||||
 [B,G]2 [B,G]2 | [CA][B,^G] [DB][CA] | [B,G]4 | [Ec][Ec] [Ec][Ec] | [DB]2 [DB]2 | %10
w: |||||
 [CA][CF] [B,G][DA] | [DB]4 | [Ec][Ec] [Ec][Ec] | [DB]2 [DB]2 | [CA][B,^G] [DB][CA] | [B,G]4- | %16
w: ||||||
 [B,G]4 |] %17
w: |
V:2
 [G,,G,][G,,G,] [G,,G,][G,,G,] | [G,,G,]2 [G,,D,]2 | [D,F,][D,A,] [D,G,][D,F,] | G,4 | %4
 [G,,G,][G,,G,] [G,,G,][G,,G,] | [G,,G,]2 [G,,D,]2 | [D,F,][D,F,] [D,F,][D,F,] | [G,,G,]4 | %8
 [C,G,][D,G,] [E,G,][F,G,] | G,2 G,2 | [D,F,][D,A,] [D,G,][D,F,] | G,4 | %12
 [C,G,][D,G,] [E,G,][F,G,] | G,2 G,2 | [D,F,][D,F,] [D,F,][D,F,] | [G,,G,]4- | [G,,G,]4 |] %17

